X: 6594
T: Cattle In The Crops
R: jig
M: 6/8
K: Dmajor
~A3 fed|~B3 geB|AFA fed|Bcd ecB|
AFA fed|BGB g2 e|faf gec|edc d:|
~a3 afd|gab a2 g|fga agf|agf efg|
aba a2 f|gab a2 g|faf g2 c|edc d:|

